X:1
T:Melford, 7.7.7
T:Melford, 7.7.7
T:M.B.F., 1886
T:Public Domain Courtesy of the Cyber Hymnal™
C:M.B.F., 1886
Z:Public Domain
Z:Courtesy of the Cyber Hymnal™
%%score ( 1 2 ) ( 3 4 )
L:1/8
Q:1/4=125
M:3/4
K:D
V:1 treble 
V:2 treble 
V:3 bass 
V:4 bass 
V:1
 [DF]4 [DF]2 | [FA]4 [FA]2 | (^G2 A2) [^FB]2 | [FA]6 | [EF]4 [EF]2 | [DF]4 [DF]2 | %6
 [FA]2 [EG]2 [DF]2 | [DE]6 | [CE]4 [EG]2 | [DF]4 (GE) | [A,D]4 [A,C]2 | [A,D]6 |] %12
V:2
 x6 | x6 | =F4 x2 | x6 | x6 | x6 | x6 | x6 | x6 | x4 E2 | x6 | x6 |] %12
V:3
 [D,A,]4 [D,A,]2 | [D,D]4 [D,A,]2 | (B,2 A,2) [D,^G,]2 | [D,A,]6 | [C,^A,]4 [C,A,]2 | %5
 [B,,B,]4 [B,,B,]2 | [G,,B,]4 [A,,A,]2 | (A,4 ^G,2) | [A,,A,]4 [C,A,]2 | [D,A,]4 (B,G,) | %10
 (F,2 E,2) [A,,G,]2 | [D,F,]6 |] %12
V:4
 x6 | x6 | D,4 x2 | x6 | x6 | x6 | x6 | B,,6 | x6 | x4 G,,2 | A,,4 x2 | x6 |] %12

